src/activities/memory-sound/memory-sound.svg

<?xml version="1.0" encoding="UTF-8" standalone="no"?>
<!-- Created with Inkscape (http://www.inkscape.org/) -->

<svg
   xmlns:dc="http://purl.org/dc/elements/1.1/"
   xmlns:cc="http://creativecommons.org/ns#"
   xmlns:rdf="http://www.w3.org/1999/02/22-rdf-syntax-ns#"
   xmlns:svg="http://www.w3.org/2000/svg"
   xmlns="http://www.w3.org/2000/svg"
   xmlns:sodipodi="http://sodipodi.sourceforge.net/DTD/sodipodi-0.dtd"
   xmlns:inkscape="http://www.inkscape.org/namespaces/inkscape"
   width="100"
   height="100"
   id="svg14315"
   sodipodi:version="0.32"
   inkscape:version="0.91 r13725"
   version="1.0"
   sodipodi:docname="memory-sound.svg">
  <defs
     id="defs14317" />
  <sodipodi:namedview
     id="base"
     pagecolor="#ffffff"
     bordercolor="#666666"
     borderopacity="1.0"
     inkscape:pageopacity="0.0"
     inkscape:pageshadow="2"
     inkscape:zoom="9.0671759"
     inkscape:cx="62.993541"
     inkscape:cy="31.783471"
     inkscape:document-units="px"
     inkscape:current-layer="g19312"
     width="100px"
     height="100px"
     inkscape:window-width="1880"
     inkscape:window-height="1060"
     inkscape:window-x="-3"
     inkscape:window-y="-3"
     showgrid="false"
     inkscape:window-maximized="1" />
  <metadata
     id="metadata14320">
    <rdf:RDF>
      <cc:Work
         rdf:about="">
        <dc:format>image/svg+xml</dc:format>
        <dc:type
           rdf:resource="http://purl.org/dc/dcmitype/StillImage" />
        <dc:title></dc:title>
        <dc:date>2015</dc:date>
        <dc:creator>
          <cc:Agent>
            <dc:title>Timothée Giet</dc:title>
          </cc:Agent>
        </dc:creator>
        <cc:license
           rdf:resource="http://creativecommons.org/licenses/by-sa/4.0/" />
      </cc:Work>
      <cc:License
         rdf:about="http://creativecommons.org/licenses/by-sa/4.0/">
        <cc:permits
           rdf:resource="http://creativecommons.org/ns#Reproduction" />
        <cc:permits
           rdf:resource="http://creativecommons.org/ns#Distribution" />
        <cc:requires
           rdf:resource="http://creativecommons.org/ns#Notice" />
        <cc:requires
           rdf:resource="http://creativecommons.org/ns#Attribution" />
        <cc:permits
           rdf:resource="http://creativecommons.org/ns#DerivativeWorks" />
        <cc:requires
           rdf:resource="http://creativecommons.org/ns#ShareAlike" />
      </cc:License>
    </rdf:RDF>
  </metadata>
  <g
     inkscape:label="Calque 1"
     inkscape:groupmode="layer"
     id="layer1">
    <g
       id="g19312"
       transform="matrix(7.638663e-2,0,0,0.226079,65.99331,73.02646)">
      <rect
         style="color:#000000;clip-rule:nonzero;display:inline;overflow:visible;visibility:visible;opacity:1;isolation:auto;mix-blend-mode:normal;color-interpolation:sRGB;color-interpolation-filters:linearRGB;solid-color:#000000;solid-opacity:1;fill:#315793;fill-opacity:1;fill-rule:nonzero;stroke:none;stroke-width:1.18700004;stroke-linecap:butt;stroke-linejoin:miter;stroke-miterlimit:4;stroke-dasharray:none;stroke-dashoffset:0;stroke-opacity:1;marker:none;color-rendering:auto;image-rendering:auto;shape-rendering:auto;text-rendering:auto;enable-background:accumulate"
         id="rect4232-3-6"
         width="598.71942"
         height="280.63184"
         x="-186.79718"
         y="-169.94432"
         ry="27.747498" />
      <rect
         style="color:#000000;clip-rule:nonzero;display:inline;overflow:visible;visibility:visible;opacity:1;isolation:auto;mix-blend-mode:normal;color-interpolation:sRGB;color-interpolation-filters:linearRGB;solid-color:#000000;solid-opacity:1;fill:#3771c8;fill-opacity:1;fill-rule:nonzero;stroke:none;stroke-width:1.18700004;stroke-linecap:butt;stroke-linejoin:miter;stroke-miterlimit:4;stroke-dasharray:none;stroke-dashoffset:0;stroke-opacity:1;marker:none;color-rendering:auto;image-rendering:auto;shape-rendering:auto;text-rendering:auto;enable-background:accumulate"
         id="rect4232-7"
         width="549.83441"
         height="267.2117"
         x="-162.35468"
         y="-163.23427"
         ry="26.420584" />
      <rect
         style="color:#000000;clip-rule:nonzero;display:inline;overflow:visible;visibility:visible;opacity:1;isolation:auto;mix-blend-mode:normal;color-interpolation:sRGB;color-interpolation-filters:linearRGB;solid-color:#000000;solid-opacity:1;fill:#315793;fill-opacity:1;fill-rule:nonzero;stroke:none;stroke-width:1.18700004;stroke-linecap:butt;stroke-linejoin:miter;stroke-miterlimit:4;stroke-dasharray:none;stroke-dashoffset:0;stroke-opacity:1;marker:none;color-rendering:auto;image-rendering:auto;shape-rendering:auto;text-rendering:auto;enable-background:accumulate"
         id="rect4232-3"
         width="598.71942"
         height="280.63184"
         x="-830.66846"
         y="-169.94432"
         ry="27.747498" />
      <rect
         style="color:#000000;clip-rule:nonzero;display:inline;overflow:visible;visibility:visible;opacity:1;isolation:auto;mix-blend-mode:normal;color-interpolation:sRGB;color-interpolation-filters:linearRGB;solid-color:#000000;solid-opacity:1;fill:#3771c8;fill-opacity:1;fill-rule:nonzero;stroke:none;stroke-width:1.18700004;stroke-linecap:butt;stroke-linejoin:miter;stroke-miterlimit:4;stroke-dasharray:none;stroke-dashoffset:0;stroke-opacity:1;marker:none;color-rendering:auto;image-rendering:auto;shape-rendering:auto;text-rendering:auto;enable-background:accumulate"
         id="rect4232"
         width="549.83441"
         height="267.2117"
         x="-806.22595"
         y="-163.23427"
         ry="26.420584" />
      <path
         style="color:#000000;clip-rule:nonzero;display:inline;overflow:visible;visibility:visible;opacity:1;isolation:auto;mix-blend-mode:normal;color-interpolation:sRGB;color-interpolation-filters:linearRGB;solid-color:#000000;solid-opacity:1;fill:#ebf1fa;fill-opacity:1;fill-rule:nonzero;stroke:none;stroke-width:1.18700004;stroke-linecap:butt;stroke-linejoin:miter;stroke-miterlimit:4;stroke-dasharray:none;stroke-dashoffset:0;stroke-opacity:1;marker:none;color-rendering:auto;image-rendering:auto;shape-rendering:auto;text-rendering:auto;enable-background:accumulate"
         id="path4189-3-6"
         sodipodi:type="arc"
         sodipodi:cx="-531.30884"
         sodipodi:cy="-29.628342"
         sodipodi:rx="229.62292"
         sodipodi:ry="77.584038"
         sodipodi:start="0.14344896"
         sodipodi:end="0.14048923"
         sodipodi:open="true"
         d="m -304.04441,-18.537122 a 229.62292,77.584038 0 0 1 -259.92258,65.704125 229.62292,77.584038 0 0 1 -194.65461,-87.772918 229.62292,77.584038 0 0 1 259.63452,-65.834015 229.62292,77.584038 0 0 1 195.03883,87.67549" />
      <path
         style="fill:#6f79b9;fill-opacity:1;fill-rule:evenodd;stroke:none;stroke-width:1px;stroke-linecap:butt;stroke-linejoin:miter;stroke-opacity:1"
         d="m -445.30766,-58.107729 -57.62078,18.88751 c 0,0 -48.56938,-3.48911 -49.02061,10.46074 -0.5933,18.33914 58.99013,14.19344 53.32067,11.62312 -1.72155,-0.78049 -23.84652,-5.74744 -31.8204,-9.87967 -5.47229,-2.83581 69.08755,-11.62307 106.64136,-15.98171 0,0 35.46755,46.9285197 -69.66087,54.3379 -150.20671,10.58643 -192.80171,-44.66862 -112.01646,-71.66354 38.01564,-12.70316 99.97629,-15.94541 160.17709,2.21565 z"
         id="path4187"
         inkscape:connector-curvature="0"
         sodipodi:nodetypes="ccssscssc" />
      <path
         style="color:#000000;clip-rule:nonzero;display:inline;overflow:visible;visibility:visible;opacity:1;isolation:auto;mix-blend-mode:normal;color-interpolation:sRGB;color-interpolation-filters:linearRGB;solid-color:#000000;solid-opacity:1;fill:#ead952;fill-opacity:1;fill-rule:nonzero;stroke:none;stroke-width:1.18700004;stroke-linecap:butt;stroke-linejoin:miter;stroke-miterlimit:4;stroke-dasharray:none;stroke-dashoffset:0;stroke-opacity:1;marker:none;color-rendering:auto;image-rendering:auto;shape-rendering:auto;text-rendering:auto;enable-background:accumulate"
         d="m -537.25606,-99.337789 a 206.40266,69.738472 0 0 0 -198.37927,59.84087 206.40266,69.738472 0 0 0 174.97214,78.89828 206.40266,69.738472 0 0 0 233.63352,-59.06021 l 0.0916,-0.20435 a 206.40266,69.738472 0 0 0 -175.32055,-78.80872 206.40266,69.738472 0 0 0 -34.99747,-0.66587 z m 1.43456,16.84555 a 156.522,52.885 0 0 1 26.54824,0.50514 156.522,52.885 0 0 1 132.94505,59.76431 l -0.0694,0.15561 a 156.522,52.885 0 0 1 -177.17627,44.78622 156.522,52.885 0 0 1 -132.68076,-59.83065 156.522,52.885 0 0 1 150.43244,-45.38068 z"
         id="path4189"
         inkscape:connector-curvature="0" />
      <path
         style="fill:#000000;fill-opacity:0.50196081;fill-rule:evenodd;stroke:none;stroke-width:0.67233763pt;stroke-linecap:butt;stroke-linejoin:miter;stroke-opacity:1"
         id="path923"
         d="m 139.35084,-114.57658 159.66207,-31.9914 -17.74023,71.980625 0,-63.982765 -141.92184,23.99354 z"
         inkscape:connector-curvature="0" />
      <path
         style="fill:#000000;fill-opacity:0.57288136;fill-rule:evenodd;stroke:none;stroke-width:0.088354pt;stroke-linecap:butt;stroke-linejoin:miter;stroke-opacity:1"
         d="M 86.123047 45.314453 L 67.152344 54.355469 L 67.152344 56.164062 L 67.152344 67.960938 A 4.0705173 6.1954912 50.644822 0 0 65.630859 67.697266 A 4.0705173 6.1954912 50.644822 0 0 61.902344 68.916016 A 4.0705173 6.1954912 50.644822 0 0 58.375 76.015625 A 4.0705173 6.1954912 50.644822 0 0 65.214844 76.548828 A 4.0705173 6.1954912 50.644822 0 0 68.996094 70.628906 L 69.025391 70.628906 L 69.048828 63.845703 L 84.787109 59.136719 L 84.820312 78.673828 A 4.4896278 6.7848283 43.465529 0 0 78.625 79.363281 A 4.4896278 6.7848283 43.465529 0 0 74.935547 87.560547 A 4.4896278 6.7848283 43.465529 0 0 82.089844 88.175781 A 4.4896278 6.7848283 43.465529 0 0 86.017578 82.056641 L 86.091797 82.054688 L 86.123047 45.314453 z M 84.767578 48.072266 L 84.785156 58.109375 L 69.058594 61.417969 L 69.080078 55.279297 L 84.767578 48.072266 z M 65.8125 69.193359 C 66.106292 69.209334 66.369267 69.27044 66.591797 69.378906 C 63.864227 71.363071 61.111302 73.337379 60.390625 76.181641 C 59.264779 76.006325 58.851449 75.091633 59.324219 73.824219 C 59.796988 72.556802 61.073853 71.156807 62.617188 70.212891 C 63.774689 69.504956 64.931125 69.145428 65.8125 69.193359 z M 82.802734 79.800781 C 83.110058 79.819229 83.384408 79.888426 83.617188 80.013672 C 80.632758 82.083534 78.352347 84.622029 77.130859 87.867188 C 75.953156 87.664752 75.52108 86.609959 76.015625 85.146484 C 76.510171 83.683009 77.844563 82.066494 79.458984 80.976562 C 80.669801 80.159117 81.880763 79.745442 82.802734 79.800781 z "
         transform="matrix(13.091296,0,0,4.4232326,-863.93797,-323.01302)"
         id="path925" />
      <path
         style="fill:#000000;fill-opacity:0.50196081;fill-rule:evenodd;stroke:none;stroke-width:0.67233763pt;stroke-linecap:butt;stroke-linejoin:miter;stroke-opacity:1"
         id="path5281"
         d="m 39.690351,-74.587355 196.042949,-28.969875 -0.72075,33.14333 -6.96056,0.64988 0,-4.823335 -88.70115,7.997845 17.74022,-15.99569 -117.400709,7.997845 z"
         inkscape:connector-curvature="0" />
      <path
         style="fill:#000000;fill-opacity:0.50196081;fill-rule:evenodd;stroke:none;stroke-width:0.08902956pt;stroke-linecap:butt;stroke-linejoin:miter;stroke-opacity:1"
         d="M 87.421875 84.427734 A 7.1264191 10.490057 46.424174 0 1 80.955078 91.914062 A 4.6469347 6.3281853 18.394919 0 0 85.308594 90.205078 A 4.6469347 6.3281853 18.394919 0 0 87.421875 84.427734 z "
         transform="matrix(13.091296,0,0,4.4232326,-863.93797,-323.01302)"
         id="path6527" />
      <path
         style="fill:#000000;fill-opacity:0.50196081;fill-rule:evenodd;stroke:none;stroke-width:0.08902957pt;stroke-linecap:butt;stroke-linejoin:miter;stroke-opacity:1"
         d="M 62.320312 65.164062 A 4.716791 6.2344671 19.510601 0 0 59.001953 66.576172 A 4.716791 6.2344671 19.510601 0 0 56.535156 72.378906 A 7.0985718 10.286292 55.426863 0 1 64.050781 65.613281 A 4.716791 6.2344671 19.510601 0 0 62.320312 65.164062 z "
         transform="matrix(13.091296,0,0,4.4232326,-863.93797,-323.01302)"
         id="path9014" />
    </g>
  </g>
</svg>

<!--Created with Inkscape (http://www.inkscape.org/)--><svg xmlns:dc="http://purl.org/dc/elements/1.1/" xmlns:cc="http://creativecommons.org/ns#" xmlns:rdf="http://www.w3.org/1999/02/22-rdf-syntax-ns#" xmlns="http://www.w3.org/2000/svg" xmlns:sodipodi="http://sodipodi.sourceforge.net/DTD/sodipodi-0.dtd" xmlns:inkscape="http://www.inkscape.org/namespaces/inkscape" width="100" height="100" sodipodi:version="0.32" inkscape:version="0.91 r13725" version="1.0" sodipodi:docname="memory-sound.svg"><sodipodi:namedview pagecolor="#ffffff" bordercolor="#666666" borderopacity="1.0" inkscape:pageopacity="0.0" inkscape:pageshadow="2" inkscape:zoom="9.0671759" inkscape:cx="62.993541" inkscape:cy="31.783471" inkscape:document-units="px" inkscape:current-layer="g19312" width="100px" height="100px" inkscape:window-width="1880" inkscape:window-height="1060" inkscape:window-x="-3" inkscape:window-y="-3" showgrid="false" inkscape:window-maximized="1"/><metadata><rdf:RDF><cc:Work><dc:format>image/svg+xml</dc:format><dc:type rdf:resource="http://purl.org/dc/dcmitype/StillImage"/><dc:title/><dc:date>2015</dc:date><dc:creator><cc:Agent><dc:title>Timothée Giet</dc:title></cc:Agent></dc:creator><cc:license rdf:resource="http://creativecommons.org/licenses/by-sa/4.0/"/></cc:Work><cc:License rdf:about="http://creativecommons.org/licenses/by-sa/4.0/"><cc:permits rdf:resource="http://creativecommons.org/ns#Reproduction"/><cc:permits rdf:resource="http://creativecommons.org/ns#Distribution"/><cc:requires rdf:resource="http://creativecommons.org/ns#Notice"/><cc:requires rdf:resource="http://creativecommons.org/ns#Attribution"/><cc:permits rdf:resource="http://creativecommons.org/ns#DerivativeWorks"/><cc:requires rdf:resource="http://creativecommons.org/ns#ShareAlike"/></cc:License></rdf:RDF></metadata><g transform="matrix(.07639 0 0 .22608 65.993 73.026)" inkscape:label="Calque 1" inkscape:groupmode="layer"><rect style="color:#000;clip-rule:nonzero;display:inline;overflow:visible;visibility:visible;opacity:1;isolation:auto;mix-blend-mode:normal;color-interpolation:sRGB;color-interpolation-filters:linearRGB;solid-color:#000;solid-opacity:1;fill:#315793;fill-opacity:1;fill-rule:nonzero;stroke:none;stroke-width:1.18700004;stroke-linecap:butt;stroke-linejoin:miter;stroke-miterlimit:4;stroke-dasharray:none;stroke-dashoffset:0;stroke-opacity:1;marker:none;color-rendering:auto;image-rendering:auto;shape-rendering:auto;text-rendering:auto;enable-background:accumulate" width="598.71942" height="280.63184" x="-186.79718" y="-169.94432" ry="27.747498"/><rect style="color:#000;clip-rule:nonzero;display:inline;overflow:visible;visibility:visible;opacity:1;isolation:auto;mix-blend-mode:normal;color-interpolation:sRGB;color-interpolation-filters:linearRGB;solid-color:#000;solid-opacity:1;fill:#3771c8;fill-opacity:1;fill-rule:nonzero;stroke:none;stroke-width:1.18700004;stroke-linecap:butt;stroke-linejoin:miter;stroke-miterlimit:4;stroke-dasharray:none;stroke-dashoffset:0;stroke-opacity:1;marker:none;color-rendering:auto;image-rendering:auto;shape-rendering:auto;text-rendering:auto;enable-background:accumulate" width="549.83441" height="267.2117" x="-162.35468" y="-163.23427" ry="26.420584"/><rect style="color:#000;clip-rule:nonzero;display:inline;overflow:visible;visibility:visible;opacity:1;isolation:auto;mix-blend-mode:normal;color-interpolation:sRGB;color-interpolation-filters:linearRGB;solid-color:#000;solid-opacity:1;fill:#315793;fill-opacity:1;fill-rule:nonzero;stroke:none;stroke-width:1.18700004;stroke-linecap:butt;stroke-linejoin:miter;stroke-miterlimit:4;stroke-dasharray:none;stroke-dashoffset:0;stroke-opacity:1;marker:none;color-rendering:auto;image-rendering:auto;shape-rendering:auto;text-rendering:auto;enable-background:accumulate" width="598.71942" height="280.63184" x="-830.66846" y="-169.94432" ry="27.747498"/><rect style="color:#000;clip-rule:nonzero;display:inline;overflow:visible;visibility:visible;opacity:1;isolation:auto;mix-blend-mode:normal;color-interpolation:sRGB;color-interpolation-filters:linearRGB;solid-color:#000;solid-opacity:1;fill:#3771c8;fill-opacity:1;fill-rule:nonzero;stroke:none;stroke-width:1.18700004;stroke-linecap:butt;stroke-linejoin:miter;stroke-miterlimit:4;stroke-dasharray:none;stroke-dashoffset:0;stroke-opacity:1;marker:none;color-rendering:auto;image-rendering:auto;shape-rendering:auto;text-rendering:auto;enable-background:accumulate" width="549.83441" height="267.2117" x="-806.22595" y="-163.23427" ry="26.420584"/><path style="color:#000;clip-rule:nonzero;display:inline;overflow:visible;visibility:visible;opacity:1;isolation:auto;mix-blend-mode:normal;color-interpolation:sRGB;color-interpolation-filters:linearRGB;solid-color:#000;solid-opacity:1;fill:#ebf1fa;fill-opacity:1;fill-rule:nonzero;stroke:none;stroke-width:1.18700004;stroke-linecap:butt;stroke-linejoin:miter;stroke-miterlimit:4;stroke-dasharray:none;stroke-dashoffset:0;stroke-opacity:1;marker:none;color-rendering:auto;image-rendering:auto;shape-rendering:auto;text-rendering:auto;enable-background:accumulate" sodipodi:type="arc" sodipodi:cx="-531.30884" sodipodi:cy="-29.628342" sodipodi:rx="229.62292" sodipodi:ry="77.584038" sodipodi:start="0.14344896" sodipodi:end="0.14048923" sodipodi:open="true" d="M-304.044-18.537a229.623 77.584 0 0 1-259.923 65.704 229.623 77.584 0 0 1-194.655-87.773 229.623 77.584 0 0 1 259.635-65.834 229.623 77.584 0 0 1 195.039 87.676"/><path style="fill:#6f79b9;fill-opacity:1;fill-rule:evenodd;stroke:none;stroke-width:1px;stroke-linecap:butt;stroke-linejoin:miter;stroke-opacity:1" d="m-445.308-58.108-57.62 18.888s-48.57-3.49-49.021 10.46c-.593 18.34 58.99 14.194 53.32 11.624-1.72-.78-23.846-5.748-31.82-9.88-5.472-2.836 69.088-11.623 106.642-15.982 0 0 35.467 46.929-69.661 54.338-150.207 10.587-192.802-44.668-112.017-71.663 38.016-12.704 99.977-15.946 160.177 2.215z" inkscape:connector-curvature="0" sodipodi:nodetypes="ccssscssc"/><path style="color:#000;clip-rule:nonzero;display:inline;overflow:visible;visibility:visible;opacity:1;isolation:auto;mix-blend-mode:normal;color-interpolation:sRGB;color-interpolation-filters:linearRGB;solid-color:#000;solid-opacity:1;fill:#ead952;fill-opacity:1;fill-rule:nonzero;stroke:none;stroke-width:1.18700004;stroke-linecap:butt;stroke-linejoin:miter;stroke-miterlimit:4;stroke-dasharray:none;stroke-dashoffset:0;stroke-opacity:1;marker:none;color-rendering:auto;image-rendering:auto;shape-rendering:auto;text-rendering:auto;enable-background:accumulate" d="M-537.256-99.338a206.403 69.738 0 0 0-198.38 59.841 206.403 69.738 0 0 0 174.973 78.898 206.403 69.738 0 0 0 233.633-59.06l.092-.204a206.403 69.738 0 0 0-175.32-78.809 206.403 69.738 0 0 0-34.998-.666zm1.434 16.846a156.522 52.885 0 0 1 26.549.505 156.522 52.885 0 0 1 132.945 59.764l-.07.156a156.522 52.885 0 0 1-177.176 44.786 156.522 52.885 0 0 1-132.68-59.83 156.522 52.885 0 0 1 150.432-45.381z" inkscape:connector-curvature="0"/><path style="fill:#000;fill-opacity:.50196081;fill-rule:evenodd;stroke:none;stroke-width:.67233763pt;stroke-linecap:butt;stroke-linejoin:miter;stroke-opacity:1" d="m139.35-114.577 159.663-31.991-17.74 71.98v-63.982L139.35-114.577z" inkscape:connector-curvature="0"/><path style="fill:#000;fill-opacity:.57288136;fill-rule:evenodd;stroke:none;stroke-width:.088354pt;stroke-linecap:butt;stroke-linejoin:miter;stroke-opacity:1" d="m86.123 45.314-18.97 9.041v13.606a4.07 6.195 50.645 0 0-1.522-.264 4.07 6.195 50.645 0 0-3.729 1.219 4.07 6.195 50.645 0 0-3.527 7.1 4.07 6.195 50.645 0 0 6.84.533 4.07 6.195 50.645 0 0 3.781-5.92h.03l.023-6.783 15.738-4.71.033 19.538a4.49 6.785 43.466 0 0-6.195.69 4.49 6.785 43.466 0 0-3.69 8.197 4.49 6.785 43.466 0 0 7.155.615 4.49 6.785 43.466 0 0 3.928-6.12l.074-.001.031-36.74zm-1.355 2.758.017 10.037-15.726 3.309.021-6.139 15.688-7.207zM65.812 69.193c.294.016.557.077.78.186-2.728 1.984-5.48 3.958-6.201 6.803-1.126-.176-1.54-1.09-1.067-2.358.473-1.267 1.75-2.667 3.293-3.611 1.158-.708 2.314-1.068 3.196-1.02zm16.99 10.608c.308.018.582.087.815.213-2.984 2.07-5.265 4.608-6.486 7.853-1.178-.202-1.61-1.257-1.115-2.72.494-1.464 1.829-3.08 3.443-4.17 1.21-.818 2.422-1.232 3.344-1.176z" transform="matrix(13.0913 0 0 4.42323 -863.938 -323.013)"/><path style="fill:#000;fill-opacity:.50196081;fill-rule:evenodd;stroke:none;stroke-width:.67233763pt;stroke-linecap:butt;stroke-linejoin:miter;stroke-opacity:1" d="m39.69-74.587 196.043-28.97-.72 33.143-6.961.65v-4.823l-88.701 7.997 17.74-15.995-117.4 7.998z" inkscape:connector-curvature="0"/><path style="fill:#000;fill-opacity:.50196081;fill-rule:evenodd;stroke:none;stroke-width:.08902956pt;stroke-linecap:butt;stroke-linejoin:miter;stroke-opacity:1" d="M87.422 84.428a7.126 10.49 46.424 0 1-6.467 7.486 4.647 6.328 18.395 0 0 4.354-1.709 4.647 6.328 18.395 0 0 2.113-5.777z" transform="matrix(13.0913 0 0 4.42323 -863.938 -323.013)"/><path style="fill:#000;fill-opacity:.50196081;fill-rule:evenodd;stroke:none;stroke-width:.08902957pt;stroke-linecap:butt;stroke-linejoin:miter;stroke-opacity:1" d="M62.32 65.164a4.717 6.234 19.51 0 0-3.318 1.412 4.717 6.234 19.51 0 0-2.467 5.803 7.099 10.286 55.427 0 1 7.516-6.766 4.717 6.234 19.51 0 0-1.73-.449z" transform="matrix(13.0913 0 0 4.42323 -863.938 -323.013)"/></g></svg>
